X: 832
T: Albert House
R: hornpipe
M: 4/4
K: Amajor
AB|:c2 ecBd (3dcB|AecA BcAF|E2 AB (3cBA ec|BAFA B2 AB|
c2 ec Bd (3dcB|AecA BcAF|E2 AB (3cBA ec|1 BAFE A2 AB:|2 BAFE A2 Ac||
e2 ef ecBA|(3aaa ga fdaf|e2 ef ecAc|ecAc B2 cd|
e2 ef ecBA|(3aaa ga fdaf|ecae fdaf|ecdB A2 Ac|
e2 ef ecBA|(3aaa ga fdaf|e2 ef ecAc|ecAc B2 cd|
eaab afdf|ec (3ccB cAFA|(3EEE AB cAec|BAFE A2 z||

